X: 2261
Q: "Irish Jig."
M: 6/8
L: 1/8
K: G
|:\
vDBB DAA | DBB AGA | DBB DAA | GAG GED |\
dBd ece | dBg dBG | dBd efg | GAG GED |
dBd ece | fdf gfe | dcB AGA | GAG GED ::\


